X: 827
M: C|
L: 1/8
K: G
V: 1
|:\
|:\
be ((3gfe) be ((3gfe) | (3fga (Tf3/e//d//) (3fga (Tf3/e//d//) |\
be ((3gfe) be ((3gfe) | (3fga (Tf3/e//d//) (3fga (Tf3/e//d//) |\
gG GA TBcd2 | gdTcB gdTcB|
V: 2 clef=bass middle=d
|: g2g2 g2g2 | G2G2 G2G2 | c2A2 d2c2 | B2d2 g2g2 | G2G2 G2G2 | c2d2 G2G2 :|
|: e2e2 e2e2 | d2d2 d2d2 | e2e2 e2e2 | d2d2 d2d2 | B2d2 G2G2 | G2G2 B2B2 |

